X: 175
T:The First Day In Spring
R:reel
S:Siobhne Peoples
D:Miltown Malbay Fiddle Class 1993
Z:Barney
M:4/4
L:1/8
K:G % transposed from F
e2 dB AG EG|(3AGA dA eA dA|Be dB AG EG|Aa (3gab a3 b|
c'b ag ed Ba|ba ge dB GB|A2 dA eA dA|1 Be dB A4:|
2 Be dB A3 g||
~a3 b c'a (3aaa|ac' ba ge ef|gb af g2 dg|Bg ba ge dB|
~a3 b c'a (3 aaa|bg af ge dB|A2 dA eA dA|Be dB A4:||
EA (3AAA Ae dB|A2 dA eA dA|EG (3GGG Gd BA|G2 dG eG dG|
EA (3AAA Ae dB|A2 dA ed d2|bg af ge dB|Ge dB A4:||

